X: 10832
M: 6/8
L: 1/8
K: D
[|\
d2d dcd | e2c A2A | B2B cBc | dAG FED |\
d2d dcd | e2c A2A | B2B cBc | d2d d2 |]
d2A F2A | f2d def | g2e f2d | eee e2A |\
d2A F2A | f2d def | gba gfe | ddd d2 H|]
f |\
fef d2f | gfg e2g | fef dcd | e2e e2g |\
fef d2f | gfg e2g | fed cde | d2d d2"^D.C."z |]


